X:6308
T:Stourton Wake
O:england
M:4/4
C:
S:Seabright
N:Paul Turner \&c.  2 parts for playabc
A:Adderbury
R:Reel
%:NoTeX
%:
%P:A.(AB)$^4$
P:A.(AB)4
K:EDor
I:speed 350
V:1
D2 |: .E2 z4 D2 :|\
P:A
|: B z2  c .d2 .B2 | AGFE  .F2  GF  | .E2 .B2 BAGF    | Eeed .e4    :|\
P:B
B z2  c .d2 .B2 | ed cB .c2 .A2  | B z2  c .d2 .B2 | .e4  .B4    |\
B z2  c .d2 .B2 | AGFE  .F2  GF  | .E2 .B2 BAGF    | Eeed  e4    ||
V:2
D2 |:  E2 z4 D2 :|\
P:A
|: B3    c  d2  B2 | AGFE   F2  D2  |  E2  B2 BAGF    | E4    E4    :|\
P:B
B3    c  d2  B2 | ed cB  c2  A2  |  B3   c  d2  B2 | e4    B4    |\
B3    c  d2  B2 | AGFE   F2  D2  |  E2  B2 BAGF    | E4    E4    ||


